icons/glyphs/glyph-google-plus.svg

<?xml version="1.0" encoding="UTF-8" standalone="no"?><svg height="22" viewBox="0 0 5.8208332 5.8208335" width="22" xmlns="http://www.w3.org/2000/svg"><sodipodi:namedview/><metadata><rdf:RDF><cc:Work><dc:format>image/svg+xml</dc:format><dc:type/><dc:title/></cc:Work></rdf:RDF></metadata><path d="m2.9104167.00000002c-1.6073787 0-2.91041666 1.30303788-2.91041666 2.91041658s1.30303796 2.9104167 2.91041666 2.9104167c1.6073786 0 2.9104166-1.303038 2.9104166-2.9104167s-1.303038-2.91041658-2.9104166-2.91041658zm-.8676473 1.34565428c.2222636 0 .4344063.045523.6278686.1260905l.058911.024288-.2092895.5084961-.060461-.024805c-.1285301-.0529688-.2686347-.0826821-.4170291-.0826821-.6057307 0-1.09037271.4846418-1.09037271 1.0903728-.00000011.6057308.48474271 1.0914063 1.09037271 1.0914063.5044327 0 .8993859-.3515926 1.0257771-.8139039h-1.0903727v-.5513876h1.1994101.4242634.058394l.00723.055294c.00944.070452.016021.1434523.016021.2185913 0 .90351-.7371609 1.6417602-1.6407267 1.6417602s-1.64176021-.7382502-1.64176021-1.6417602c0-.9035103.73825021-1.6417603 1.64176021-1.6417603zm2.4517365.9177734h.5513877v.4501016h.4495848v.5513877h-.4495848v.4495848h-.5513877v-.4495848h-.4501015v-.5513877h.4501015z" fill="#d0d0d0"/></svg>

<?xml version="1.0" encoding="UTF-8" standalone="no"?>
<!-- Created with Inkscape (http://www.inkscape.org/) -->

<svg
   xmlns:dc="http://purl.org/dc/elements/1.1/"
   xmlns:cc="http://creativecommons.org/ns#"
   xmlns:rdf="http://www.w3.org/1999/02/22-rdf-syntax-ns#"
   xmlns:svg="http://www.w3.org/2000/svg"
   xmlns="http://www.w3.org/2000/svg"
   xmlns:sodipodi="http://sodipodi.sourceforge.net/DTD/sodipodi-0.dtd"
   xmlns:inkscape="http://www.inkscape.org/namespaces/inkscape"
   width="22"
   height="22"
   viewBox="0 0 5.8208332 5.8208335"
   version="1.1"
   id="svg8"
   inkscape:version="0.92+devel 15719 custom"
   sodipodi:docname="glyph-google-plus.svg">
  <defs
     id="defs2" />
  <sodipodi:namedview
     id="base"
     pagecolor="#002466"
     bordercolor="#ffffff"
     borderopacity="0.37647059"
     inkscape:pageopacity="1"
     inkscape:pageshadow="2"
     inkscape:zoom="18.613637"
     inkscape:cx="19.420706"
     inkscape:cy="11.682471"
     inkscape:document-units="px"
     inkscape:current-layer="svg8"
     inkscape:document-rotation="0"
     showgrid="false"
     inkscape:showpageshadow="false"
     borderlayer="true"
     units="px"
     inkscape:window-width="1920"
     inkscape:window-height="1051"
     inkscape:window-x="0"
     inkscape:window-y="0"
     inkscape:window-maximized="1"
     inkscape:snap-object-midpoints="true"
     inkscape:snap-center="true" />
  <metadata
     id="metadata5">
    <rdf:RDF>
      <cc:Work
         rdf:about="">
        <dc:format>image/svg+xml</dc:format>
        <dc:type
           rdf:resource="http://purl.org/dc/dcmitype/StillImage" />
        <dc:title></dc:title>
      </cc:Work>
    </rdf:RDF>
  </metadata>
  <path
     style="fill:#d0d0d0;stroke:none;stroke-width:0.83494949;stroke-linecap:round;stroke-miterlimit:4;stroke-dasharray:none"
     d="M 2.9104167,2.4999998e-8 C 1.303038,2.4999998e-8 4.4999998e-8,1.3030379 4.4999998e-8,2.9104166 4.4999998e-8,4.5177953 1.303038,5.8208333 2.9104167,5.8208333 c 1.6073786,0 2.9104166,-1.303038 2.9104166,-2.9104167 C 5.8208333,1.3030379 4.5177953,2.4999998e-8 2.9104167,2.4999998e-8 Z M 2.0427694,1.3456543 c 0.2222636,0 0.4344063,0.045523 0.6278686,0.1260905 L 2.729549,1.4960328 2.5202595,2.0045289 2.4597985,1.9797239 C 2.3312684,1.9267551 2.1911638,1.8970418 2.0427694,1.8970418 c -0.6057307,0 -1.09037271,0.4846418 -1.09037271,1.0903728 -1.1e-7,0.6057308 0.48474271,1.0914063 1.09037271,1.0914063 0.5044327,0 0.8993859,-0.3515926 1.0257771,-0.8139039 H 1.9781738 V 2.7135294 h 1.1994101 0.4242634 0.058394 l 0.00723,0.055294 c 0.00944,0.070452 0.016021,0.1434523 0.016021,0.2185913 0,0.90351 -0.7371609,1.6417602 -1.6407267,1.6417602 -0.9035658,0 -1.64176021,-0.7382502 -1.64176021,-1.6417602 0,-0.9035103 0.73825021,-1.6417603 1.64176021,-1.6417603 z M 4.4945059,2.2634277 H 5.0458936 V 2.7135293 H 5.4954784 V 3.264917 H 5.0458936 V 3.7145018 H 4.4945059 V 3.264917 H 4.0444044 V 2.7135293 h 0.4501015 z"
     id="path4313"
     inkscape:connector-curvature="0"
     sodipodi:nodetypes="ssssssccccssscccccccssssccccccccccccc"
     inkscape:label="#" />
</svg>
